ui_kit/lib/assets/icons/hand.svg

<svg width="14" height="18" viewBox="0 0 14 18" fill="none" xmlns="http://www.w3.org/2000/svg">
<path d="M1.07726 11.5348C1.81659 15.0794 3.45218 17.1733 6.65283 17.1733C9.05134 17.1733 10.6084 16.1981 11.6779 14.24C12.4407 13.0211 12.9755 11.346 13.4159 9.89906C13.6518 9.15199 13.9742 8.20831 13.9978 7.79152C14.0292 7.31968 13.7226 6.98152 13.2507 6.95007C12.7081 6.91075 12.3699 7.22531 12.0318 7.93307L10.9308 10.3001C10.8286 10.536 10.7185 10.6147 10.5927 10.6147C10.4511 10.6147 10.3489 10.536 10.3489 10.2765L10.7111 1.97013C10.7111 1.45897 10.3101 1.05791 9.79892 1.05791C9.29563 1.05791 8.89456 1.45897 8.89456 1.97013L8.53232 8.01171C8.32786 7.94093 8.10767 7.87802 7.87961 7.83083L7.68857 0.912232C7.68857 0.401073 7.2875 9.53674e-06 6.77634 9.53674e-06C6.27304 9.53674e-06 5.87198 0.401073 5.87198 0.912232L6.06303 7.74433C5.82711 7.76792 5.59905 7.79938 5.371 7.8387L4.57033 1.50033C4.57033 0.99703 4.16927 0.595967 3.66597 0.595967C3.15481 0.595967 2.75375 0.99703 2.75375 1.50033L3.48806 8.35448C3.25214 8.46458 2.9471 8.63034 2.74263 8.76403L1.81659 3.95389C1.81659 3.45059 1.41552 3.04953 0.912229 3.04953C0.40107 3.04953 6.19888e-06 3.45059 6.19888e-06 3.95389L1.07726 11.5348Z" fill="white"/>
</svg>

<svg xmlns="http://www.w3.org/2000/svg" width="14" height="18" fill="none" viewBox="0 0 14 18"><path fill="#fff" d="M1.077 11.535c.74 3.544 2.375 5.638 5.576 5.638 2.398 0 3.955-.975 5.025-2.933.763-1.219 1.297-2.894 1.738-4.34.236-.748.558-1.692.582-2.108.031-.472-.275-.81-.747-.842-.543-.04-.881.275-1.22.983l-1.1 2.367c-.102.236-.212.315-.338.315-.142 0-.244-.079-.244-.338l.362-8.307a.903.903 0 0 0-.912-.912.901.901 0 0 0-.904.912l-.363 6.042a5.27 5.27 0 0 0-.652-.181L7.689.912A.903.903 0 0 0 6.776 0a.901.901 0 0 0-.904.912l.191 6.832a9.77 9.77 0 0 0-.692.095l-.8-6.339a.9.9 0 0 0-.905-.904.901.901 0 0 0-.912.904l.734 6.854c-.236.11-.54.276-.745.41l-.926-4.81a.9.9 0 0 0-.905-.904.901.901 0 0 0-.912.904l1.077 7.58Z"/></svg>
